X:1
T:[ID 4-8r]
T:[ID 4-8r]
T:Bezeichnung standardisiert: Pergudino Pergudina
T:Urheber unbekannt Datum in der hier transkribierten schriftlichen Quelle: 1767
C:Urheber unbekannt
C:Datum in der hier transkribierten schriftlichen Quelle: 1767
L:1/8
M:2/4
K:D
V:1 treble 
V:1
 df fa | ab/a/ g/f/e/d/ | d/c/B/A/ AB/c/ | d2 D2 :: g/f/g/f/ d/c/B/A/ | a/^g/a/b/ f2 | %6
 g/f/g/f/ d/c/B/A/ | d2 D2 :: fa fa | fa e2 | f/a/d'/c'/ b/a/g/f/ | ec A2 | aa g/f/e/d/ | %13
 b/a/b/c'/ d'b | af/a/ a/g/f/e/ | d2 D2 :| %16

